assets/features/channel/europe-and-america/przelewy24.svg

<svg width="80" height="80" viewBox="0 0 80 80" fill="none" xmlns="http://www.w3.org/2000/svg">
<rect width="80" height="80" rx="8" fill="#D13239"/>
<path fill-rule="evenodd" clip-rule="evenodd" d="M15.1644 39.3C15.3468 39.3743 15.5123 39.469 15.6272 39.5907C15.715 39.6819 15.7826 39.7766 15.84 39.8813C16.0021 40.1788 16.0325 40.4898 16.0292 40.6959C16.0292 40.8447 16.0089 40.9393 16.0089 40.9393C16.0089 40.9393 15.9988 41.0204 15.9819 41.1489C15.9413 41.4429 15.8636 41.9973 15.7859 42.4603C15.715 42.8795 15.6306 43.2242 15.6306 43.2242C15.6306 43.2242 15.4245 44.1538 14.6544 44.5628C13.8842 44.9717 12.7965 44.9278 12.7965 44.9278L10.0064 44.9143L9.43896 48.362H8L9.5403 39.0532H11.2596H13.5701C13.5701 39.0532 13.6782 39.0532 13.8471 39.06C14.0295 39.0667 14.2862 39.087 14.5496 39.1343C14.7591 39.1715 14.9719 39.2256 15.1644 39.3ZM14.222 42.8829C14.3909 41.9973 14.5192 41.2503 14.5192 41.2334C14.5192 41.2317 14.5199 41.2267 14.5209 41.2191C14.5261 41.1806 14.5406 41.0732 14.5294 40.9494C14.5192 40.848 14.4922 40.7331 14.4213 40.6452C14.3672 40.5776 14.1983 40.5337 13.9855 40.5067C13.739 40.4729 13.4383 40.4627 13.212 40.4593C13.0127 40.456 12.8709 40.4593 12.8709 40.4593L10.7597 40.4526L10.2463 43.5454L12.577 43.5521C12.577 43.5521 13.1073 43.5724 13.6005 43.4676C13.8977 43.4034 14.1578 43.2209 14.222 42.8829ZM26.6896 41.6424L21.4067 41.6491L21.1939 42.9606H24.5751L20.3393 47.0201L20.1096 48.362L25.5716 48.3586L25.7878 47.0606L22.0789 47.0674L26.4971 42.8457L26.6896 41.6424ZM33.8541 39.0532H35.239L33.6885 48.362L32.3002 48.3586L33.8541 39.0532ZM42.5723 41.6457L41.2448 41.6491L41.9203 48.362L43.5282 48.3552L45.5921 43.6569L46.065 48.3552H47.6998L50.6251 41.6457H49.2469L47.2067 46.388L46.7236 41.6424L45.0854 41.639L43.0418 46.3711L42.5723 41.6457ZM29.6655 41.5579C30.2364 41.5511 30.9086 41.5781 31.297 41.7032C32.4522 42.0818 32.611 43.0451 32.3881 44.3092L32.1955 45.4247L27.6861 45.4382C27.6861 45.4382 27.5983 45.6444 27.5611 46.4353C27.5577 46.4556 27.5577 46.4691 27.5577 46.4793C27.4949 47.1267 28.2088 47.1399 28.4288 47.1441C28.4455 47.1444 28.4594 47.1446 28.4698 47.1451L28.5152 47.1475C28.6965 47.1568 29.1043 47.178 29.8108 47.0978C30.5877 47.0099 30.6654 46.0601 30.6654 46.0601L32.101 46.0568L32.0131 46.4184L32.0109 46.4275C31.9994 46.4776 31.9519 46.681 31.8206 46.9626C31.6787 47.2668 31.4794 47.5237 31.4794 47.5237C31.4794 47.5237 31.0336 48.1186 30.1891 48.318C29.3446 48.5175 28.2232 48.4296 28.2232 48.4296C28.2232 48.4296 27.6895 48.4431 27.0612 48.1997C26.4329 47.9597 26.2607 47.4426 26.1627 46.8883C26.0647 46.3305 26.3958 44.6642 26.3958 44.6642C26.3958 44.6642 26.5613 43.1566 27.1186 42.4671C27.676 41.7776 28.6555 41.6356 28.6555 41.6356C28.8616 41.5917 29.1149 41.5646 29.6655 41.5579ZM27.9057 44.147L30.9964 44.1504C30.9964 44.1504 31.1112 43.5961 31.0031 43.231C30.9559 43.0755 30.7802 42.9707 30.5944 42.9336C30.0371 42.8186 29.3514 42.8693 29.0947 42.893C28.8379 42.9167 28.5643 42.9471 28.3482 43.1093C28.1354 43.2716 28.0273 43.6569 28.0273 43.6569L27.9057 44.147ZM39.8058 41.7066C39.4174 41.5815 38.7452 41.5545 38.1743 41.5612C37.6237 41.568 37.3704 41.595 37.1643 41.639C37.1643 41.639 36.1848 41.7809 35.6274 42.4705C35.0701 43.16 34.9046 44.6675 34.9046 44.6675C34.9046 44.6675 34.5735 46.3339 34.6715 46.8916C34.7694 47.446 34.9417 47.9631 35.57 48.2031C36.1983 48.4465 36.732 48.433 36.732 48.433C36.732 48.433 37.8534 48.5208 38.6979 48.3214C39.5423 48.122 39.9882 47.5271 39.9882 47.5271C39.9882 47.5271 40.1875 47.2702 40.3294 46.966C40.4607 46.6844 40.5081 46.481 40.5197 46.4309L40.5219 46.4218L40.6097 46.0601L39.1742 46.0635C39.1742 46.0635 39.0965 47.0133 38.3196 47.1012C37.6457 47.1778 37.2436 47.162 37.0507 47.1544C37.0221 47.1533 36.9982 47.1523 36.9786 47.1519C36.9684 47.1515 36.9552 47.1511 36.9393 47.1509C36.7211 47.1464 36.0035 47.1317 36.0665 46.486C36.0665 46.4759 36.0665 46.4624 36.0699 46.4421C36.1071 45.6511 36.1949 45.445 36.1949 45.445L40.7043 45.4314L40.8969 44.316C41.1198 43.0485 40.961 42.0818 39.8058 41.7066ZM39.4917 44.1504L36.4009 44.147L36.5226 43.6569C36.5226 43.6569 36.6306 43.2716 36.8434 43.1093C37.0563 42.9471 37.3332 42.9167 37.59 42.893C37.8467 42.8693 38.5324 42.8186 39.0897 42.9336C39.2755 42.9707 39.4511 43.0755 39.4984 43.231C39.6065 43.5927 39.4917 44.1504 39.4917 44.1504ZM52.2194 41.6491L53.1078 46.557L55.6175 41.6457L57.0295 41.6593L53.4118 48.6729C53.4118 48.6729 52.7565 49.9438 52.3511 50.265C51.9458 50.5861 51.6958 50.7314 51.3648 50.7652L51.2761 50.7744C51.0066 50.8028 50.8687 50.8172 50.5812 50.7652L50.2434 50.7044L50.4528 49.4504C50.4528 49.4504 51.0135 49.5551 51.3445 49.4233C51.679 49.2915 51.9458 48.7236 51.9458 48.7236L52.1147 48.4397L50.8075 41.6457L52.2194 41.6491ZM18.1099 42.1088C18.5592 41.8621 19.0861 41.6424 19.6434 41.6424H20.4474L20.2177 42.9403L19.4543 42.9437C18.3599 42.9437 17.7991 43.8732 17.664 44.6236L17.0087 48.3248H15.5292L16.7115 41.6424H18.1876L18.1099 42.1088Z" fill="white"/>
<path fill-rule="evenodd" clip-rule="evenodd" d="M46.7371 32.6551L48.453 29.2041C48.453 29.2041 52.2126 29.1297 55.4553 29.6333C58.698 30.1336 61.6638 30.9042 61.5996 30.938L53.3779 35.2409C53.3779 35.2409 51.4559 34.0241 49.0712 33.2771C47.72 32.8782 46.7371 32.6551 46.7371 32.6551ZM35.8672 31.0327L36.2252 33.0438C36.2252 33.0438 37.8803 32.6044 39.8631 32.3678C42.41 32.0197 45.1225 32.3915 45.1225 32.3915L46.1426 29.2852C46.1426 29.2852 43.0586 29.4914 40.7313 29.924C38.4073 30.3567 35.8672 31.0327 35.8672 31.0327ZM28.2129 36.3394L26.1558 34.9536C26.1558 34.9536 28.017 33.8956 30.493 32.9086C32.9656 31.9216 34.2863 31.5093 34.2863 31.5093L34.7052 33.4731C34.7052 33.4731 32.3238 34.2708 30.9591 34.9164C29.5472 35.5181 28.2129 36.3394 28.2129 36.3394ZM23.1158 39.8209H18.6807C18.6807 39.8209 20.4101 38.4959 21.2816 37.9247C22.1801 37.3061 24.298 35.9946 24.298 35.9946L26.8044 37.1675C26.8044 37.1675 25.5208 37.9821 24.8148 38.4993C24.1089 39.0164 23.1158 39.8209 23.1158 39.8209ZM57.5428 42.3154L58.9986 42.3188L59.0865 41.7543C59.0865 41.7543 59.2419 40.7335 59.5898 40.5375C59.7012 40.4733 59.8803 40.4158 60.0863 40.3786C60.468 40.311 60.951 40.3043 61.3463 40.3178L61.379 40.3189C61.9595 40.3383 62.1919 40.3461 62.7953 40.4158C63.4101 40.4868 63.2547 41.0817 63.2547 41.0817L63.1331 41.9706C63.1331 41.9706 63.0791 42.3695 62.9372 42.6162C62.8122 42.8359 62.4677 42.9847 62.2684 43.0489C61.7887 43.2044 60.1471 43.6235 60.1471 43.6235L58.8568 43.9953C58.8568 43.9953 58.063 44.2251 57.6205 44.7153C57.1746 45.2088 56.999 45.7665 56.9382 46.0572C56.8774 46.3478 56.5362 48.359 56.5362 48.359L63.5013 48.3624L63.7344 46.9698L58.2251 46.9765L58.3231 46.4087C58.3231 46.4087 58.3873 45.8239 58.6237 45.6313C58.6351 45.6219 58.6458 45.612 58.6571 45.6015C58.7191 45.5436 58.803 45.4654 59.1743 45.3338C59.4378 45.2392 60.3363 44.9992 60.3363 44.9992L62.4137 44.4313C62.4137 44.4313 63.5486 44.1406 63.9945 43.5187C64.4404 42.9002 64.6126 41.7137 64.6126 41.7137C64.6126 41.7137 64.7342 40.5611 64.6397 40.1995C64.5485 39.8378 64.2073 39.4052 63.7918 39.2192C63.3763 39.0333 62.944 38.9252 61.6908 38.9421C60.4376 38.959 59.8161 39.0164 59.181 39.253C58.546 39.4863 58.1778 39.9122 57.9448 40.5138C57.6914 41.0851 57.5428 42.3154 57.5428 42.3154ZM70.6556 44.9045L71.6318 39.0502H69.9023L64.5181 44.8369L64.2748 46.3039H68.9836L68.639 48.359L70.0847 48.3624L70.4259 46.3039L71.7602 46.3073L72 44.9045H70.6556ZM69.2166 44.9079L66.1732 44.9045L69.8787 40.9532L69.2166 44.9079ZM56.6578 37.5495L54.8507 36.1772L65.1463 32.2022L65.226 32.2385C66.5367 32.8339 67.2664 33.1654 68.5512 34.0004C69.0646 34.335 69.747 34.8691 69.9192 35.0381C70.3887 35.5079 70.838 35.9608 71.0846 36.3867C71.4798 37.0695 71.5102 37.5495 71.5102 37.5495H56.6578Z" fill="white"/>
</svg>

<svg xmlns="http://www.w3.org/2000/svg" width="80" height="80" fill="none" viewBox="0 0 80 80"><rect width="80" height="80" fill="#d13239" rx="8"/><path fill="#fff" fill-rule="evenodd" d="M15.164 39.3c.183.074.348.169.463.29.088.092.156.187.213.291.162.298.192.609.19.815 0 .149-.021.243-.021.243l-.027.21c-.04.294-.118.848-.196 1.311-.071.42-.155.764-.155.764s-.207.93-.977 1.339-1.857.365-1.857.365l-2.79-.014-.568 3.448H8l1.54-9.309h4.03s.108 0 .277.007c.183.007.44.027.703.074.21.038.422.092.614.166m-.942 3.583a64 64 0 0 0 .297-1.65l.002-.014c.005-.038.02-.146.008-.27a.57.57 0 0 0-.108-.304c-.054-.067-.223-.111-.435-.138a7 7 0 0 0-.774-.048c-.2-.003-.341 0-.341 0l-2.111-.006-.514 3.092 2.331.007s.53.02 1.024-.084c.297-.065.557-.247.621-.585m12.468-1.24-5.283.006-.213 1.312h3.381l-4.236 4.06-.23 1.341 5.463-.003.216-1.298-3.71.006 4.42-4.221zm7.164-2.59h1.385l-1.55 9.309-1.389-.003zm8.718 2.593-1.327.003.675 6.713 1.608-.007 2.064-4.698.473 4.698H47.7l2.925-6.71h-1.378l-2.04 4.743-.483-4.746-1.639-.003-2.043 4.732zm-12.907-.088c.571-.007 1.244.02 1.632.145 1.155.379 1.314 1.342 1.091 2.606l-.192 1.116-4.51.013s-.088.206-.125.997q-.004.03-.003.044c-.063.648.65.66.87.665l.042.001.045.002c.181.01.59.031 1.296-.05.777-.087.854-1.037.854-1.037l1.436-.003-.088.361-.002.01a2.7 2.7 0 0 1-.19.535c-.142.304-.342.56-.342.56s-.445.596-1.29.795c-.844.2-1.966.112-1.966.112s-.534.013-1.162-.23c-.628-.24-.8-.757-.898-1.312-.098-.557.233-2.224.233-2.224s.165-1.507.723-2.197 1.537-.831 1.537-.831c.206-.044.459-.071 1.01-.078m-1.76 2.589 3.091.003s.115-.554.007-.919c-.047-.156-.223-.26-.409-.297-.557-.115-1.243-.065-1.5-.041s-.53.054-.746.216c-.213.163-.32.548-.32.548zm11.9-2.44c-.388-.126-1.06-.153-1.63-.146-.551.007-.805.034-1.01.078 0 0-.98.142-1.538.831-.557.69-.722 2.197-.722 2.197s-.331 1.667-.233 2.225c.097.554.27 1.071.898 1.311.628.243 1.162.23 1.162.23s1.121.088 1.966-.112a2.4 2.4 0 0 0 1.29-.794s.2-.257.341-.561a2.6 2.6 0 0 0 .19-.535l.003-.01.088-.36-1.436.002s-.078.95-.854 1.038a8 8 0 0 1-1.27.053l-.071-.002-.04-.001c-.218-.005-.935-.02-.873-.665q-.001-.014.004-.044c.037-.79.125-.997.125-.997l4.51-.014.192-1.115c.223-1.268.064-2.234-1.091-2.61m-.313 2.443-3.091-.003.122-.49s.108-.385.32-.548c.213-.162.49-.192.747-.216s.942-.074 1.5.04c.185.038.361.142.408.298.108.362-.006.92-.006.92m12.727-2.5.889 4.907 2.51-4.911 1.411.013-3.617 7.014s-.655 1.27-1.06 1.592c-.406.321-.656.466-.987.5l-.089.01c-.27.028-.407.042-.695-.01l-.338-.06.21-1.255s.56.105.891-.027c.335-.132.602-.7.602-.7l.169-.283-1.308-6.794zm-34.11.459c.45-.247.977-.467 1.534-.467h.804l-.23 1.298-.763.004c-1.094 0-1.655.93-1.79 1.68l-.655 3.7h-1.48l1.183-6.682h1.476zm28.626-9.454 1.716-3.45s3.76-.075 7.002.428c3.243.5 6.209 1.271 6.145 1.305l-8.222 4.303s-1.922-1.217-4.307-1.964c-1.351-.399-2.334-.622-2.334-.622m-10.87-1.622.358 2.01s1.655-.439 3.638-.675c2.547-.348 5.26.023 5.26.023l1.02-3.106s-3.084.206-5.412.639c-2.324.433-4.864 1.109-4.864 1.109m-7.654 5.306-2.057-1.385s1.861-1.058 4.337-2.045c2.473-.987 3.793-1.4 3.793-1.4l.42 1.964s-2.382.798-3.747 1.443a24 24 0 0 0-2.746 1.423m-5.097 3.482H18.68s1.73-1.325 2.6-1.896c.9-.619 3.017-1.93 3.017-1.93l2.506 1.172s-1.283.815-1.99 1.332c-.705.517-1.698 1.322-1.698 1.322m34.427 2.494 1.456.004.087-.565s.156-1.02.504-1.216c.111-.065.29-.122.496-.16.382-.067.865-.074 1.26-.06h.033c.58.02.813.028 1.416.098.615.07.46.666.46.666l-.122.889s-.054.399-.196.645c-.125.22-.47.369-.669.433-.48.155-2.12.575-2.12.575l-1.291.371s-.794.23-1.236.72a2.96 2.96 0 0 0-.683 1.342c-.06.29-.402 2.302-.402 2.302l6.965.003.233-1.392-5.509.007.098-.568s.064-.585.3-.778l.034-.03c.062-.057.146-.136.517-.267a26 26 0 0 1 1.162-.335l2.078-.568s1.135-.29 1.58-.912c.446-.619.619-1.805.619-1.805s.121-1.153.027-1.514c-.091-.362-.433-.795-.848-.98-.416-.187-.848-.295-2.101-.278s-1.875.074-2.51.311c-.635.233-1.003.66-1.236 1.26-.254.572-.402 1.802-.402 1.802m13.113 2.59.976-5.855h-1.73l-5.384 5.787-.243 1.467h4.709l-.345 2.055 1.446.003.34-2.058 1.335.003.24-1.403zm-1.44.003-3.043-.004 3.706-3.95zM56.659 37.55l-1.807-1.373 10.295-3.975.08.037c1.31.595 2.04.926 3.325 1.761.514.335 1.196.87 1.368 1.038.47.47.919.923 1.166 1.349.395.682.425 1.163.425 1.163z" clip-rule="evenodd"/></svg>
